www/static/icons/colour_cap.svg

<svg clip-rule="evenodd" fill-rule="evenodd" stroke-linecap="round" stroke-linejoin="round" stroke-miterlimit="1.5" viewBox="0 0 24 24" xmlns="http://www.w3.org/2000/svg"><g stroke="#000" stroke-width=".86" transform="matrix(1.10005 0 0 1.22823 -1.19679 -2.85458)"><path d="m3 16.089-.833 1.325s1.471.17 3.833-.731" fill="#a5291c"/><path d="m8.248 11.869s-5.442 4.147-5.677 4.36c-.234.212-.617.631-.604.885.014.253.105.38.309.252.204-.127.284-.638 1.151-.6.868.039 1.612.377 2.647.94 1.036.562 3.228 2.831 5.533 2.584 2.304-.248 6.764-3.916 7.393-6.29" fill="#c0392b"/><path d="m6.623 13.124s2.046-.404 6.219 1.286c4.172 1.691 4.725 1.586 5.945 1.226s2.774-.643 2.995-1.141.243-3.678.014-4.954-1.232-3.529-3.842-4.251c-2.611-.722-5.533-.946-8.108.337s-3.186 6.975-3.223 7.497z" fill="#a5291c"/></g></svg>

<?xml version="1.0" encoding="UTF-8" standalone="no"?>
<!DOCTYPE svg PUBLIC "-//W3C//DTD SVG 1.1//EN" "http://www.w3.org/Graphics/SVG/1.1/DTD/svg11.dtd">
<svg width="100%" height="100%" viewBox="0 0 26 26" version="1.1" xmlns="http://www.w3.org/2000/svg" xmlns:xlink="http://www.w3.org/1999/xlink" xml:space="preserve" xmlns:serif="http://www.serif.com/" style="fill-rule:evenodd;clip-rule:evenodd;stroke-linecap:round;stroke-linejoin:round;stroke-miterlimit:1.5;">
    <g transform="matrix(1.10005,0,0,1.22823,-0.19679,-1.85458)">
        <path d="M8.248,11.869C8.248,11.869 2.806,16.016 2.571,16.229C2.337,16.441 1.954,16.86 1.967,17.114C1.981,17.367 2.072,17.494 2.276,17.366C2.48,17.239 2.56,16.728 3.427,16.766C4.295,16.805 5.039,17.143 6.074,17.706C7.11,18.268 9.302,20.537 11.607,20.29C13.911,20.042 18.371,16.374 19,14" style="fill:rgb(192,57,43);stroke:white;stroke-width:2.57px;"/>
    </g>
    <g transform="matrix(1.10005,0,0,1.22823,-0.19679,-1.85458)">
        <path d="M6.623,13.124C6.623,13.124 8.669,12.72 12.842,14.41C17.014,16.101 17.567,15.996 18.787,15.636C20.007,15.276 21.561,14.993 21.782,14.495C22.003,13.997 22.025,10.817 21.796,9.541C21.567,8.265 20.564,6.012 17.954,5.29C15.343,4.568 12.421,4.344 9.846,5.627C7.271,6.91 6.66,12.602 6.623,13.124Z" style="fill:rgb(165,41,28);stroke:white;stroke-width:2.57px;"/>
    </g>
    <g transform="matrix(1.10005,0,0,1.22823,-0.19679,-1.85458)">
        <path d="M8.248,11.869C8.248,11.869 2.806,16.016 2.571,16.229C2.337,16.441 1.954,16.86 1.967,17.114C1.981,17.367 2.072,17.494 2.276,17.366C2.48,17.239 2.56,16.728 3.427,16.766C4.295,16.805 5.039,17.143 6.074,17.706C7.11,18.268 9.302,20.537 11.607,20.29C13.911,20.042 18.371,16.374 19,14" style="fill:rgb(192,57,43);stroke:black;stroke-width:0.86px;"/>
    </g>
    <g transform="matrix(1.10005,0,0,1.22823,-0.19679,-1.85458)">
        <path d="M6.623,13.124C6.623,13.124 8.669,12.72 12.842,14.41C17.014,16.101 17.567,15.996 18.787,15.636C20.007,15.276 21.561,14.993 21.782,14.495C22.003,13.997 22.025,10.817 21.796,9.541C21.567,8.265 20.564,6.012 17.954,5.29C15.343,4.568 12.421,4.344 9.846,5.627C7.271,6.91 6.66,12.602 6.623,13.124Z" style="fill:rgb(165,41,28);stroke:black;stroke-width:0.86px;"/>
    </g>
</svg>
